X:535
T:Airts the Wind Can Blow
M:4/4
L:1/16
Z:abc by Bruce Osborne - bosborne@kos.net
K:A
E2|AA3A3A A3EA3f|e3cB3A F4F3E|AA3A3A A3EA3f|e2fga3c e4e2f2|!
e3fa3c e3cB3A|B3ec3A F4F3E|AA3A3A A3EA3f|ec3B3c A6:|!
|:E2|C3EA3E F3EA3E|c3edcBA F4FA3|C3EA3E F3EA3E|c3defga e4e2fg|!
a3gf3e f3ed3c|B3edcBA F4F3E|AA3A3A A3EA3f|ec3B3c A6:|!
